X:30
T:The Seven Year Waltz
C:Andy Cutting
Z:robin.beech@mcgill.ca
M:3/4
L:1/8
K:G
GA | B4 BA | Bd d2 GA | B4 BA | Bd ed gf | 
d2 B2- BA | B3 GAB | ed dB BG |1 A3 D :|2 A4- AB |:
c4- cd | BA GG AB | c3 Bcd | B2 g2 dB |
c3 Bcd | ABd GBd | ed dB BG |1 A4- AB :|2 A2 e2 f2 |:
gf ed Bd | e3 dGA | B2 BG cA | dB ec ef | 
gf ed Bd | e3 dGA | B2 BA Bd |1 A2 e2 f2 :|2 A4 |]
